;FLAVOR:Marlin
;TIME:6666
;Filament used: 0m
;Layer height: 0.1
;MINX:2.14748e+06
;MINY:2.14748e+06
;MINZ:2.14748e+06
;MAXX:-2.14748e+06
;MAXY:-2.14748e+06
;MAXZ:-2.14748e+06
;TARGET_MACHINE.NAME:Unknown

;Generated with Cura_SteamEngine 5.11.0
M104 S210
M105
M109 S210

M82 ;absolute extrusion mode
M83 ;relative extrusion mode
G1 F1500 E-1
;LAYER_COUNT:76
;LAYER:0
;note -- min layer time used
M106 S255
;MESH:C:\Users\jacob\OneDrive\Documents\Research\Core-R-Theta\S5_Slicer\output_models\tmp9nab5l30_1776536412.8857388_deformed_tet.stl
G0 F3600 X2.658 Y-.868 Z0.16
;TYPE:WALL-OUTER
G1 F1500 E1
G1 F705.9 X2.695 Y-0.018 E0.01924
G1 F1500 E-1
;MESH:NONMESH
G0 F600 X2.695 Y-0.018 Z0.26
G0 F3600 X2.602 Y0.806
;TIME_ELAPSED:2.172585
;LAYER:1
;note -- min layer time used
;TYPE:WALL-OUTER
;MESH:C:\Users\jacob\OneDrive\Documents\Research\Core-R-Theta\S5_Slicer\output_models\tmp9nab5l30_1776536412.8857388_deformed_tet.stl
G1 F1500 E1
G1 F588.2 X2.571 Y0.048 E0.01287
G1 F491.8 X2.54 Y-.711 E0.01541
;MESH:NONMESH
G0 F600 X2.54 Y-.711 Z0.36
G0 F5400 X2.657 Y0.045
;TIME_ELAPSED:2.457728
;LAYER:2
;note -- min layer time used
;TYPE:WALL-OUTER
;MESH:C:\Users\jacob\OneDrive\Documents\Research\Core-R-Theta\S5_Slicer\output_models\tmp9nab5l30_1776536412.8857388_deformed_tet.stl
G1 F468.8 X2.495 Y0.443 E0.00915
G1 X2.302 Y0.06 E0.00913
G1 F641.7 X2.236 Y-.777 E0.01306
G1 F613.8 X2.65 Y-.788 E0.00673
G1 F641.7 X2.657 Y0.045 E0.01295
G0 F7200 X2.582 Y0.23
G0 X2.496 Y0.656
G1 F360.4 X2.495 Y0.443 E0.0059
;MESH:NONMESH
G0 F600 X2.495 Y0.443 Z0.46
G0 F7200 X2.626 Y0.749
;TIME_ELAPSED:2.881887
;LAYER:3
;note -- min layer time used
;TYPE:WALL-OUTER
;MESH:C:\Users\jacob\OneDrive\Documents\Research\Core-R-Theta\S5_Slicer\output_models\tmp9nab5l30_1776536412.8857388_deformed_tet.stl
G1 F501 X2.153 Y0.743 E0.00942
G1 F497.9 X2.146 Y0.147 E0.01194
G1 F478.1 X2.074 Y-.715 E0.01805
G1 F463.3 X2.622 Y-.727 E0.0118
G1 F481.9 X2.626 Y0.749 E0.03056
G0 F7200 X2.426 Y0.747
G1 F1500 E-1
;MESH:NONMESH
G0 F600 X2.426 Y0.747 Z0.56
G0 F7200 X2.272 Y-.342
;TIME_ELAPSED:3.503277
;LAYER:4
;note -- min layer time used
;TYPE:WALL-INNER
;MESH:C:\Users\jacob\OneDrive\Documents\Research\Core-R-Theta\S5_Slicer\output_models\tmp9nab5l30_1776536412.8857388_deformed_tet.stl
G1 F1500 E1
G1 F512.8 X2.282 Y0.357 E0.0136
G0 F7200 X2.702 Y0.786
;TYPE:WALL-OUTER
G1 F600 X2.721 Y-.795 E0.02629
G1 X1.782 Y-.776 E0.01562
G1 X1.852 Y-0.097 E0.01135
G1 X1.862 Y0.777 E0.01454
G1 X2.702 Y0.786 E0.01397
G0 F7200 X2.704 Y0.586
G1 F1500 E-1
;MESH:NONMESH
G0 F600 X2.704 Y0.586 Z0.66
G0 F7200 X-2.451 Y0.158
;TIME_ELAPSED:4.314942
;LAYER:5
;note -- min layer time used
;TYPE:WALL-OUTER
;MESH:C:\Users\jacob\OneDrive\Documents\Research\Core-R-Theta\S5_Slicer\output_models\tmp9nab5l30_1776536412.8857388_deformed_tet.stl
G1 F1500 E1
G1 F572.8 X-2.412 Y0.776 E0.01079
G1 F570.1 X-2.838 Y0.78 E0.00746
G1 F572.8 X-2.888 Y-.325 E0.01927
G1 F575.5 X-2.451 Y0.158 E0.01129
G0 F7200 X-2.439 Y0.357
G1 F1500 E-1
G0 F7200 X2.359 Y0.395
;TYPE:WALL-INNER
G1 F1500 E1
G1 F641.7 X2.365 Y-.405 E0.01244
G1 F638.3 X1.984 Y-.395 E0.00596
G1 F641.7 X1.992 Y0.391 E0.01222
G1 F645.2 X2.359 Y0.395 E0.00568
G0 F7200 X2.741 Y0.785
;TYPE:WALL-OUTER
G1 F600 X2.757 Y-.803 E0.02641
G1 X1.55 Y-.776 E0.02008
G1 X1.596 Y-.335 E0.00737
G1 X1.61 Y0.773 E0.01843
G1 X2.741 Y0.785 E0.01881
G0 F7200 X2.743 Y0.585
G1 F1500 E-1
;MESH:NONMESH
G0 F600 X2.743 Y0.585 Z0.76
G0 F7200 X-2.323 Y0.3
;TIME_ELAPSED:5.773743
;LAYER:6
;note -- min layer time used
;TYPE:WALL-INNER
;MESH:C:\Users\jacob\OneDrive\Documents\Research\Core-R-Theta\S5_Slicer\output_models\tmp9nab5l30_1776536412.8857388_deformed_tet.stl
G1 F1500 E1
G1 F418.1 X-1.738 Y0.295 E0.01396
G1 X-1.784 Y-.299 E0.01422
G1 X-2.346 Y-.3 E0.01341
G1 X-2.323 Y0.3 E0.01433
G0 F7200 X-2.791 Y0.79
;TYPE:WALL-OUTER
G1 F600 X-1.213 Y0.777 E0.02624
G1 X-1.334 Y-.784 E0.02604
G1 X-2.852 Y-.787 E0.02524
G1 X-2.791 Y0.79 E0.02625
G0 F7200 X-2.591 Y0.789
G1 F1500 E-1
G0 F7200 X2.326 Y0.318
;TYPE:WALL-INNER
G1 F1500 E1
G1 F461.5 X2.332 Y-.336 E0.01414
G1 F460.7 X1.805 Y-.326 E0.01142
G1 F461.5 X1.813 Y0.311 E0.01377
G1 X2.326 Y0.318 E0.01109
G0 F7200 X2.781 Y0.785
;TYPE:WALL-OUTER
G1 F600 X2.797 Y-.807 E0.02648
G1 X1.337 Y-.777 E0.02429
G1 X1.358 Y0.766 E0.02566
G1 X2.781 Y0.785 E0.02367
G0 F7200 X2.783 Y0.585
G1 F1500 E-1
;MESH:NONMESH
G0 F600 X2.783 Y0.585 Z0.86
G0 F7200 X-2.258 Y0.294
;TIME_ELAPSED:8.066744
;LAYER:7
;note -- min layer time used
;TYPE:WALL-INNER
;MESH:C:\Users\jacob\OneDrive\Documents\Research\Core-R-Theta\S5_Slicer\output_models\tmp9nab5l30_1776536412.8857388_deformed_tet.stl
G1 F1500 E1
G1 F413.8 X-.579 Y0.282 E0.04049
G1 F415.9 X-.547 Y-.29 E0.01374
G1 F413.8 X-2.281 Y-.293 E0.04181
G1 F411 X-2.258 Y0.294 E0.01426
G0 F7200 X-2.731 Y0.79
;TYPE:WALL-OUTER
G1 F600 X-.118 Y0.765 E0.04346
G1 X-0.053 Y-.393 E0.01929
G1 X-0.085 Y-.776 E0.00639
G1 X-2.792 Y-.787 E0.04502
G1 X-2.731 Y0.79 E0.02625
G0 F7200 X-2.531 Y0.789
G1 F1500 E-1
G0 F7200 X2.331 Y0.286
;TYPE:WALL-INNER
G1 F1500 E1
G1 F410.3 X2.338 Y-.311 E0.01452
G1 F411 X1.583 Y-.296 E0.01833
G1 F411.7 X1.588 Y0.277 E0.01389
G1 F411 X2.331 Y0.286 E0.01804
G0 F7200 X2.818 Y0.785
;TYPE:WALL-OUTER
G1 F600 X2.837 Y-.815 E0.02661
G1 X1.087 Y-.776 E0.02911
G1 X1.102 Y0.762 E0.02558
G1 X2.818 Y0.785 E0.02854
G0 F7200 X2.82 Y0.585
;MESH:NONMESH
G0 F600 X2.82 Y0.585 Z0.96
G0 F7200 X2.126 Y0.288
;TIME_ELAPSED:10.963896
;LAYER:8
;note -- min layer time used
;TYPE:WALL-INNER
;MESH:C:\Users\jacob\OneDrive\Documents\Research\Core-R-Theta\S5_Slicer\output_models\tmp9nab5l30_1776536412.8857388_deformed_tet.stl
G1 F408.2 X2.126 Y-.31 E0.01462
G1 F415.2 X0.761 Y-.292 E0.0328
G1 F415.9 X-2.226 Y-.294 E0.07165
G1 F410.3 X-2.201 Y0.294 E0.01431
G1 F416.7 X0.634 Y0.276 E0.06789
G1 F415.2 X2.126 Y0.288 E0.03585
G0 F7200 X2.614 Y0.789
;TYPE:WALL-OUTER
G1 F600 X2.62 Y-.815 E0.02667
G1 X0.763 Y-.776 E0.03089
G1 X-2.739 Y-.787 E0.05824
G1 X-2.672 Y0.79 E0.02625
G1 X0.627 Y0.76 E0.05486
G1 X2.614 Y0.789 E0.03305
G0 F7200 X2.614 Y0.589
G1 F1500 E-1
;MESH:NONMESH
G0 F600 X2.614 Y0.589 Z1.06
G0 F7200 X0.302 Y0.278
;TIME_ELAPSED:13.942406
;LAYER:9
;note -- min layer time used
;TYPE:WALL-INNER
;MESH:C:\Users\jacob\OneDrive\Documents\Research\Core-R-Theta\S5_Slicer\output_models\tmp9nab5l30_1776536412.8857388_deformed_tet.stl
G1 F1500 E1
G1 F413.1 X1.869 Y0.292 E0.03785
G1 F406.8 X1.87 Y-.308 E0.01472
G1 F411.7 X0.794 Y-.292 E0.02608
G1 F412.4 X-2.166 Y-.292 E0.07162
G1 F407.5 X-2.142 Y0.3 E0.01451
G1 F413.8 X0.302 Y0.278 E0.05894
G0 F7200 X0.295 Y0.764
;TYPE:WALL-OUTER
G1 F600 X2.305 Y0.793 E0.03343
G1 X2.364 Y0.515 E0.00473
G1 X2.367 Y-.815 E0.02212
G1 X0.795 Y-.78 E0.02615
G1 X-2.681 Y-.787 E0.05781
G1 X-2.615 Y0.8 E0.02641
G1 X0.295 Y0.764 E0.0484
G0 F7200 X0.495 Y0.766
;MESH:NONMESH
G0 F600 X0.495 Y0.766 Z1.16
G0 F7200 X-0.023 Y0.284
;TIME_ELAPSED:16.750002
;LAYER:10
;note -- min layer time used
;TYPE:WALL-INNER
;MESH:C:\Users\jacob\OneDrive\Documents\Research\Core-R-Theta\S5_Slicer\output_models\tmp9nab5l30_1776536412.8857388_deformed_tet.stl
G1 F411 X1.613 Y0.297 E0.03972
G1 F406.1 X1.614 Y-.305 E0.01479
G1 F408.9 X0.828 Y-.293 E0.01918
G1 F408.2 X-2.105 Y-.295 E0.0717
G1 F405.4 X-2.08 Y0.299 E0.01463
G1 F411 X-0.023 Y0.284 E0.04995
G0 F7200 X-0.029 Y0.772
;TYPE:WALL-OUTER
G1 F600 X1.997 Y0.797 E0.0337
G1 X2.108 Y0.263 E0.00907
G1 X2.111 Y-.811 E0.01786
G1 X0.826 Y-.784 E0.02137
G1 X-2.623 Y-.789 E0.05736
G1 X-2.556 Y0.801 E0.02647
G1 X-0.029 Y0.772 E0.04203
G0 F7200 X0.171 Y0.774
;MESH:NONMESH
G0 F600 X0.171 Y0.774 Z1.26
G0 F7200 X-.351 Y0.289
;TIME_ELAPSED:19.361942
;LAYER:11
;note -- min layer time used
;TYPE:WALL-INNER
;MESH:C:\Users\jacob\OneDrive\Documents\Research\Core-R-Theta\S5_Slicer\output_models\tmp9nab5l30_1776536412.8857388_deformed_tet.stl
G1 F406.8 X1.287 Y0.302 E0.04018
G1 F402 X1.358 Y-0.037 E0.0086
G1 F402.7 X1.358 Y-.295 E0.00639
G1 F404.7 X-2.044 Y-.295 E0.08387
G1 F405.4 X-2.023 Y0.3 E0.01465
G1 F408.9 X-.351 Y0.289 E0.04081
G0 F7200 X-.357 Y0.78
;TYPE:WALL-OUTER
G1 F600 X1.69 Y0.805 E0.03404
G1 X1.856 Y0.015 E0.01342
G1 X1.856 Y-.811 E0.01374
G1 X-.165 Y-.784 E0.03361
G1 X-2.545 Y-.788 E0.03958
G1 X-2.54 Y-.198 E0.00981
G1 X-2.499 Y0.796 E0.01654
G1 X-.357 Y0.78 E0.03562
G0 F7200 X-.157 Y0.782
;MESH:NONMESH
G0 F600 X-.157 Y0.782 Z1.36
G0 F7200 X-.684 Y0.384
;TIME_ELAPSED:21.810914
;LAYER:12
;note -- min layer time used
;TYPE:WALL-INNER
;MESH:C:\Users\jacob\OneDrive\Documents\Research\Core-R-Theta\S5_Slicer\output_models\tmp9nab5l30_1776536412.8857388_deformed_tet.stl
G1 F600 X1.057 Y0.405 E0.02896
G1 X1.2 Y-.275 E0.01156
G1 X1.2 Y-.402 E0.00211
G1 X-.432 Y-.388 E0.02714
G1 X-2.079 Y-.393 E0.02739
G1 X-2.056 Y0.396 E0.01313
G1 X-.684 Y0.384 E0.02282
G0 F7200 X-.689 Y0.784
;TYPE:WALL-OUTER
G1 F600 X1.381 Y0.809 E0.03443
G1 X1.6 Y-.233 E0.01771
G1 X1.6 Y-.811 E0.00961
G1 X0.89 Y-.795 E0.01181
G1 X-.43 Y-.788 E0.02195
G1 X-1.979 Y-.795 E0.02576
G1 X-2.485 Y-.789 E0.00842
G1 X-2.475 Y-0.065 E0.01204
G1 X-2.44 Y0.796 E0.01433
G1 X-.689 Y0.784 E0.02912
G0 F7200 X-.489 Y0.786
;MESH:NONMESH
G0 F600 X-.489 Y0.786 Z1.46
G0 F7200 X-1.013 Y0.392
;TIME_ELAPSED:23.820428
;LAYER:13
;note -- min layer time used
;TYPE:WALL-INNER
;MESH:C:\Users\jacob\OneDrive\Documents\Research\Core-R-Theta\S5_Slicer\output_models\tmp9nab5l30_1776536412.8857388_deformed_tet.stl
G1 F600 X0.746 Y0.41 E0.02925
G1 X0.916 Y-.398 E0.01373
G1 X-2.015 Y-.393 E0.04874
G1 X-1.996 Y0.397 E0.01314
G1 X-1.013 Y0.392 E0.01635
G0 F7200 X-1.017 Y0.792
;TYPE:WALL-OUTER
G1 F600 X1.07 Y0.814 E0.03471
G1 X1.344 Y-.486 E0.02209
G1 X1.346 Y-.8 E0.00522
G1 X-2.421 Y-.789 E0.06265
G1 X-2.411 Y0.065 E0.0142
G1 X-2.38 Y0.796 E0.01217
G1 X-1.582 Y0.8 E0.01327
G1 X-1.017 Y0.792 E0.0094
G0 F7200 X-.817 Y0.794
G1 F1500 E-1
;MESH:NONMESH
G0 F600 X-.817 Y0.794 Z1.56
G0 F7200 X0.438 Y0.415
;TIME_ELAPSED:25.744466
;LAYER:14
;note -- min layer time used
;TYPE:WALL-INNER
;MESH:C:\Users\jacob\OneDrive\Documents\Research\Core-R-Theta\S5_Slicer\output_models\tmp9nab5l30_1776536412.8857388_deformed_tet.stl
G1 F1500 E1
G1 F600 X0.614 Y-.41 E0.01403
G1 X-1.954 Y-.391 E0.04271
G1 X-1.938 Y0.399 E0.01314
G1 X0.438 Y0.415 E0.03951
G1 F1500 E-1
G0 F7200 X-2.347 Y0.194
;TYPE:WALL-OUTER
G1 F1500 E1
G1 F600 X-2.323 Y0.797 E0.01004
G1 X0.762 Y0.818 E0.0513
G1 X1.109 Y-.814 E0.02775
G1 X-2.36 Y-.789 E0.05769
G1 X-2.347 Y0.194 E0.01635
G0 F7200 X-2.34 Y0.394
G1 F1500 E-1
G0 F7200 X0.107 Y0.003
;TYPE:SKIN
G1 F1500 E1
G1 F545.5 X-1.552 Y0.004 E0.03035
;MESH:NONMESH
G0 F600 X-1.552 Y0.004 Z1.66
G0 F7200 X-1.421 Y-.373
;TIME_ELAPSED:27.951088
;LAYER:15
;note -- min layer time used
;TYPE:WALL-OUTER
;MESH:C:\Users\jacob\OneDrive\Documents\Research\Core-R-Theta\S5_Slicer\output_models\tmp9nab5l30_1776536412.8857388_deformed_tet.stl
G1 F485.8 X-1.666 Y-.283 E0.00536
G1 F424.8 X-1.628 Y0.72 E0.02358
G1 F428.6 X-2.187 Y0.72 E0.01301
G1 F431.7 X-2.214 Y-.158 E0.02031
G1 F423.3 X-2.206 Y-.699 E0.01275
G1 F413.1 X-1.914 Y-.702 E0.00705
G1 F481 X-1.459 Y-.787 E0.0096
G1 F568.7 X0.776 Y-.792 E0.03921
G1 F560.7 X-.466 Y-.359 E0.0234
G1 F568.7 X-1.421 Y-.373 E0.01676
G0 F7200 X-1.608 Y-.305
G1 F1500 E-1
;MESH:NONMESH
G0 F600 X-1.608 Y-.305 Z1.76
G0 F7200 X-1.565 Y0.716
;TIME_ELAPSED:29.107801
;LAYER:16
;note -- min layer time used
;TYPE:WALL-OUTER
;MESH:C:\Users\jacob\OneDrive\Documents\Research\Core-R-Theta\S5_Slicer\output_models\tmp9nab5l30_1776536412.8857388_deformed_tet.stl
G1 F1500 E1
G1 F430.1 X-2.136 Y0.718 E0.01325
G1 F434.8 X-2.159 Y-.717 E0.03294
G1 F437.2 X-1.619 Y-.723 E0.01233
G1 F431.7 X-1.565 Y0.716 E0.03329
G0 F7200 X-1.765 Y0.716
;MESH:NONMESH
G0 F600 X-1.765 Y0.716 Z1.86
G0 F7200 X-1.501 Y0.715
;TIME_ELAPSED:29.774232
;LAYER:17
;note -- min layer time used
;TYPE:WALL-OUTER
;MESH:C:\Users\jacob\OneDrive\Documents\Research\Core-R-Theta\S5_Slicer\output_models\tmp9nab5l30_1776536412.8857388_deformed_tet.stl
G1 F426.3 X-2.073 Y0.718 E0.01339
G1 F431.7 X-2.097 Y-.715 E0.03313
G1 F436.4 X-1.556 Y-.719 E0.01237
G1 F431.7 X-1.501 Y0.715 E0.03317
G0 F7200 X-1.701 Y0.716
;MESH:NONMESH
G0 F600 X-1.701 Y0.716 Z1.96
G0 F7200 X-1.441 Y0.715
;TIME_ELAPSED:30.396258
;LAYER:18
;note -- min layer time used
;TYPE:WALL-OUTER
;MESH:C:\Users\jacob\OneDrive\Documents\Research\Core-R-Theta\S5_Slicer\output_models\tmp9nab5l30_1776536412.8857388_deformed_tet.stl
G1 F425.5 X-2.013 Y0.717 E0.01341
G1 F430.1 X-2.033 Y-.714 E0.0332
G1 F434.8 X-1.49 Y-.718 E0.01246
G1 F430.1 X-1.441 Y0.715 E0.03326
G0 F7200 X-1.641 Y0.715
;MESH:NONMESH
G0 F600 X-1.641 Y0.715 Z2.06
G0 F7200 X-1.377 Y0.717
;TIME_ELAPSED:31.020078
;LAYER:19
;note -- min layer time used
;TYPE:WALL-OUTER
;MESH:C:\Users\jacob\OneDrive\Documents\Research\Core-R-Theta\S5_Slicer\output_models\tmp9nab5l30_1776536412.8857388_deformed_tet.stl
G1 F427 X-1.947 Y0.721 E0.01332
G1 F431.7 X-1.973 Y-.715 E0.0332
G1 F436.4 X-1.432 Y-.719 E0.01237
G1 F431.7 X-1.377 Y0.717 E0.03322
G0 F7200 X-1.577 Y0.718
;MESH:NONMESH
G0 F600 X-1.577 Y0.718 Z2.16
G0 F7200 X-1.313 Y0.716
;TIME_ELAPSED:31.642503
;LAYER:20
;note -- min layer time used
;TYPE:WALL-OUTER
;MESH:C:\Users\jacob\OneDrive\Documents\Research\Core-R-Theta\S5_Slicer\output_models\tmp9nab5l30_1776536412.8857388_deformed_tet.stl
G1 F426.3 X-1.885 Y0.721 E0.01339
G1 F431.7 X-1.909 Y-.712 E0.03313
G1 F436.4 X-1.368 Y-.718 E0.01237
G1 F431.7 X-1.313 Y0.716 E0.03317
G0 F7200 X-1.513 Y0.717
;MESH:NONMESH
G0 F600 X-1.513 Y0.717 Z2.26
G0 F7200 X-1.249 Y0.713
;TIME_ELAPSED:32.264658
;LAYER:21
;note -- min layer time used
;TYPE:WALL-OUTER
;MESH:C:\Users\jacob\OneDrive\Documents\Research\Core-R-Theta\S5_Slicer\output_models\tmp9nab5l30_1776536412.8857388_deformed_tet.stl
G1 F426.3 X-1.821 Y0.72 E0.01339
G1 F431.7 X-1.845 Y-.712 E0.03311
G1 F436.4 X-1.304 Y-.718 E0.01237
G1 F431.7 X-1.249 Y0.713 E0.0331
G0 F7200 X-1.449 Y0.715
;MESH:NONMESH
G0 F600 X-1.449 Y0.715 Z2.36
G0 F7200 X-1.188 Y0.714
;TIME_ELAPSED:32.886167
;LAYER:22
;note -- min layer time used
;TYPE:WALL-OUTER
;MESH:C:\Users\jacob\OneDrive\Documents\Research\Core-R-Theta\S5_Slicer\output_models\tmp9nab5l30_1776536412.8857388_deformed_tet.stl
G1 F427.8 X-1.758 Y0.721 E0.0133
G1 F432.4 X-1.783 Y-.712 E0.03307
G1 F437.2 X-1.235 Y-.719 E0.01251
G1 F432.4 X-1.188 Y0.714 E0.03308
G0 F7200 X-1.388 Y0.716
;MESH:NONMESH
G0 F600 X-1.388 Y0.716 Z2.46
G0 F7200 X-1.124 Y0.714
;TIME_ELAPSED:33.507689
;LAYER:23
;note -- min layer time used
;TYPE:WALL-OUTER
;MESH:C:\Users\jacob\OneDrive\Documents\Research\Core-R-Theta\S5_Slicer\output_models\tmp9nab5l30_1776536412.8857388_deformed_tet.stl
G1 F427.8 X-1.694 Y0.721 E0.0133
G1 F432.4 X-1.715 Y-.712 E0.03307
G1 F434.8 X-1.175 Y-.719 E0.01239
G1 F430.1 X-1.124 Y0.714 E0.03327
G0 F7200 X-1.324 Y0.716
;MESH:NONMESH
G0 F600 X-1.324 Y0.716 Z2.56
G0 F7200 X-1.061 Y0.714
;TIME_ELAPSED:34.129581
;LAYER:24
;note -- min layer time used
;TYPE:WALL-OUTER
;MESH:C:\Users\jacob\OneDrive\Documents\Research\Core-R-Theta\S5_Slicer\output_models\tmp9nab5l30_1776536412.8857388_deformed_tet.stl
G1 F427 X-1.63 Y0.72 E0.0133
G1 F431.7 X-1.65 Y-.714 E0.03315
G1 F436.4 X-1.103 Y-.716 E0.01251
G1 F431.7 X-1.061 Y0.714 E0.03307
G0 F7200 X-1.261 Y0.716
G1 F1500 E-1
;MESH:NONMESH
G0 F600 X-1.261 Y0.716 Z2.66
G0 F7200 X-1.031 Y-.168
;TIME_ELAPSED:34.809774
;LAYER:25
;note -- min layer time used
;TYPE:WALL-OUTER
;MESH:C:\Users\jacob\OneDrive\Documents\Research\Core-R-Theta\S5_Slicer\output_models\tmp9nab5l30_1776536412.8857388_deformed_tet.stl
G1 F1500 E1
G1 F431.7 X-.997 Y0.714 E0.0204
G1 F427 X-1.567 Y0.72 E0.01332
G1 F431.7 X-1.59 Y-.713 E0.03313
G1 F435.6 X-1.04 Y-.716 E0.0126
G1 X-1.031 Y-.168 E0.01256
G0 F7200 X-1.024 Y0.031
;MESH:NONMESH
G0 F600 X-1.024 Y0.031 Z2.76
G0 F7200 X-.964 Y-0.08
;TIME_ELAPSED:35.472443
;LAYER:26
;note -- min layer time used
;TYPE:WALL-OUTER
;MESH:C:\Users\jacob\OneDrive\Documents\Research\Core-R-Theta\S5_Slicer\output_models\tmp9nab5l30_1776536412.8857388_deformed_tet.stl
G1 F430.9 X-.933 Y0.714 E0.0184
G1 F427 X-1.503 Y0.72 E0.01332
G1 F430.1 X-1.525 Y-.713 E0.03325
G1 F434 X-.973 Y-.715 E0.01269
G1 F434.8 X-.964 Y-0.08 E0.01457
